X: 41129
T: Trip To The Woodlands
R: jig
M: 6/8
K: Fmajor
|:A/B/|c3/2d/c cAF|c3/2d/c cAF|fed cBA|BGG G2 A/B/|
c3/2d/c cAF|c3/2d/c cAF|fed c3/2d/B|AFF F2:|
|:c|f3 g3|agf edc|fed cBA|BGG G2c|
f3 g3|agf edc|fed cdB|AFF F2:|

